usr/share/icons/biglinux-icons-material/16/actions/distribute-horizontal.svg

<svg xmlns="http://www.w3.org/2000/svg" viewBox="0 0 16 16"><path d="M1 4v8h4V4H1zm10 0v8h4V4h-4zM2 5h2v6H2V5zm10 0h2v6h-2V5zM6 6v4h1V9h2v1h1V6H9v1H7V6H6z" style="fill:currentColor;fill-opacity:1;stroke:none;color:#dedede"/></svg>

<svg xmlns="http://www.w3.org/2000/svg" viewBox="0 0 16 16">
  <defs id="defs3051">
    <style type="text/css" id="current-color-scheme">
      .ColorScheme-Text {
        color:#363636;
      }
      </style>
  </defs>
 <path style="fill:currentColor;fill-opacity:1;stroke:none" 
     d="M 1 4 L 1 12 L 5 12 L 5 4 L 1 4 z M 11 4 L 11 12 L 15 12 L 15 4 L 11 4 z M 2 5 L 4 5 L 4 11 L 2 11 L 2 5 z M 12 5 L 14 5 L 14 11 L 12 11 L 12 5 z M 6 6 L 6 10 L 7 10 L 7 9 L 9 9 L 9 10 L 10 10 L 10 6 L 9 6 L 9 7 L 7 7 L 7 6 L 6 6 z "
     class="ColorScheme-Text"
     />
</svg>
